src/assets/brandDetails/positiveRating.svg

<svg fill="none" height="37" viewBox="0 0 40 37" width="40" xmlns="http://www.w3.org/2000/svg"><path d="m14.6969 36.3366h16.2417c1.4978 0 2.7791-.9023 3.3205-2.2016l5.45-12.7227c.1624-.4151.2527-.8482.2527-1.3174v-3.6093c0-1.9851-1.6242-3.6093-3.6093-3.6093h-11.3873l1.7144-8.24714.0542-.57748c0-.7399-.3068-1.42566-.7941-1.91292l-1.9129-1.894864-11.8925 11.892504c-.6497.6497-1.0467 1.552-1.0467 2.5446v18.0463c0 1.9851 1.6242 3.6093 3.6093 3.6093zm0-21.6556 7.8321-7.83214-2.4182 9.63674h16.2417v3.6093l-5.4139 12.6324h-16.2417zm-14.437134 0h7.218544v21.6556h-7.218544z" fill="#a5cd26"/></svg>

<svg width="40" height="37" viewBox="0 0 40 37" fill="none" xmlns="http://www.w3.org/2000/svg">
<path d="M14.6969 36.3366L30.9386 36.3366C32.4364 36.3366 33.7177 35.4343 34.2591 34.135L39.7091 21.4123C39.8715 20.9972 39.9618 20.5641 39.9618 20.0949V16.4856C39.9618 14.5005 38.3376 12.8763 36.3525 12.8763H24.9652L26.6796 4.62916L26.7338 4.05168C26.7338 3.31178 26.427 2.62602 25.9397 2.13876L24.0268 0.243896L12.1343 12.1364C11.4846 12.7861 11.0876 13.6884 11.0876 14.681L11.0876 32.7273C11.0876 34.7124 12.7118 36.3366 14.6969 36.3366ZM14.6969 14.681L22.529 6.84886L20.1108 16.4856H36.3525V20.0949L30.9386 32.7273L14.6969 32.7273L14.6969 14.681ZM0.259766 14.681H7.47831L7.47831 36.3366H0.259766L0.259766 14.681Z" fill="#A5CD26"/>
</svg>
